src/lib/packages/icons/src/assets/line/clipboard-plus.svg

<svg xmlns="http://www.w3.org/2000/svg" width="24" height="24" fill="none"><path fill="currentColor" d="M17 4.25h-.27c-.097-1.254-.909-2-2.23-2h-5c-1.321 0-2.133.746-2.23 2H7C4.582 4.25 3.25 5.582 3.25 8v10c0 2.418 1.332 3.75 3.75 3.75h10c2.418 0 3.75-1.332 3.75-3.75V8c0-2.418-1.332-3.75-3.75-3.75Zm-8.25.25c0-.589.161-.75.75-.75h5c.589 0 .75.161.75.75v1c0 .589-.161.75-.75.75h-5c-.589 0-.75-.161-.75-.75v-1ZM19.25 18c0 1.577-.673 2.25-2.25 2.25H7c-1.577 0-2.25-.673-2.25-2.25V8c0-1.577.673-2.25 2.25-2.25h.27c.097 1.254.909 2 2.23 2h5c1.321 0 2.133-.746 2.23-2H17c1.577 0 2.25.673 2.25 2.25v10Zm-4-4.5a.75.75 0 0 1-.75.75h-1.75V16a.75.75 0 0 1-1.5 0v-1.75H9.5a.75.75 0 0 1 0-1.5h1.75V11a.75.75 0 0 1 1.5 0v1.75h1.75a.75.75 0 0 1 .75.75Z"/></svg>

<svg width="24" height="24" viewBox="0 0 24 24" fill="none" xmlns="http://www.w3.org/2000/svg">
<path d="M17 4.25H16.73C16.633 2.996 15.821 2.25 14.5 2.25H9.5C8.179 2.25 7.36702 2.996 7.27002 4.25H7C4.582 4.25 3.25 5.582 3.25 8V18C3.25 20.418 4.582 21.75 7 21.75H17C19.418 21.75 20.75 20.418 20.75 18V8C20.75 5.582 19.418 4.25 17 4.25ZM8.75 4.5C8.75 3.911 8.911 3.75 9.5 3.75H14.5C15.089 3.75 15.25 3.911 15.25 4.5V5.5C15.25 6.089 15.089 6.25 14.5 6.25H9.5C8.911 6.25 8.75 6.089 8.75 5.5V4.5ZM19.25 18C19.25 19.577 18.577 20.25 17 20.25H7C5.423 20.25 4.75 19.577 4.75 18V8C4.75 6.423 5.423 5.75 7 5.75H7.27002C7.36702 7.004 8.179 7.75 9.5 7.75H14.5C15.821 7.75 16.633 7.004 16.73 5.75H17C18.577 5.75 19.25 6.423 19.25 8V18ZM15.25 13.5C15.25 13.914 14.914 14.25 14.5 14.25H12.75V16C12.75 16.414 12.414 16.75 12 16.75C11.586 16.75 11.25 16.414 11.25 16V14.25H9.5C9.086 14.25 8.75 13.914 8.75 13.5C8.75 13.086 9.086 12.75 9.5 12.75H11.25V11C11.25 10.586 11.586 10.25 12 10.25C12.414 10.25 12.75 10.586 12.75 11V12.75H14.5C14.914 12.75 15.25 13.086 15.25 13.5Z" fill="currentColor"/>
</svg>
